X: 40954
T: Trip To Culdaff
R: slip jig
M: 9/8
K: Bminor
B2A FcB AFE|c2B Ace fae|~f3 edc edc|a2e edc eAc|
B2A FcB AFE|c2B Ace fae|~f3 edc edc|eAd cBA B3:|:
B2c def efa|b2a fed BAF|G2B def edc|a2e edc eAc|
B2c def efa|b2a fed BAF|G2B def edc|eAd cBA B3:|

